svg/blobs-icons/no-decorations/pencil.svg

<svg xmlns="http://www.w3.org/2000/svg" xmlns:xlink="http://www.w3.org/1999/xlink" preserveAspectRatio="xMidYMid" width="217" height="218" viewBox="0 0 217 218"><defs><style>.cls-3{fill:#ff3a2f}.cls-4{fill:#fff}.cls-5{fill:#142a3b}.cls-7{fill:#fbb713}.cls-8{fill:#000;opacity:.35}</style></defs><g id="group-136svg"><path d="M206.505 51.119S190.36 67.265 190.36 67.265s-40.785-40.787-40.785-40.787 16.146-16.144 16.146-16.144c12.738-12.739 32.15-13.873 43.375-2.649C214.737 13.327 217.271 21.032 216.766 28.864 216.331 36.765 212.844 44.78 206.505 51.119z" id="path-1" class="cls-3" fill-rule="evenodd"/><path d="M169.159 24.457C168.628 24.457 168.088 24.338 167.578 24.09 165.785 23.215 165.039 21.051 165.913 19.256 171.078 8.67 183.072 3.86 192.642 8.526 194.435 9.402 195.182 11.566 194.306 13.359 193.429 15.151 191.268 15.896 189.471 15.024 183.485 12.103 175.827 15.422 172.411 22.426 171.785 23.71 170.498 24.457 169.159 24.457z" id="path-2" class="cls-4" fill-rule="evenodd"/><path d="M19.322 156.335S153.576 22.626 153.576 22.626s40.895 40.895 40.895 40.895S58.472 198.79 58.472 198.79s0 0 0 0" id="path-3" class="cls-5" fill-rule="evenodd"/><path d="M23.656 207.612S-.003 216.846-.003 216.846s8.278-24.617 8.278-24.617 15.381 15.383 15.381 15.383z" id="path-4" class="cls-5" fill-rule="evenodd"/><path d="M42.922 156.481S27.787 156.482 27.787 156.482 19.322 156.335 19.322 156.335 8.275 192.229 8.275 192.229s15.38 15.383 15.38 15.383 34.817-8.822 34.817-8.822 1.184-10.944 1.184-10.944S59.663 173.234 59.663 173.234 42.583 175.588 42.583 175.588 42.922 156.481 42.922 156.481z" id="path-5" class="cls-7" fill-rule="evenodd"/><path d="M193.173.178C194.953 1.246 196.631 2.518 198.148 4.036 203.79 9.677 206.323 17.382 205.818 25.214 205.383 33.115 201.897 41.131 195.556 47.47l-8.845 8.846S194.01 63.614 194.01 63.614s12.494-12.495 12.494-12.495c6.34-6.341 9.827-14.354 10.262-22.255C217.272 21.033 214.737 13.326 209.097 7.685 204.735 3.324 199.134.853 193.173.178z" id="path-6" class="cls-8" fill-rule="evenodd"/><path d="M150.866 24.788s22.135 28.395 22.135 28.395C176.944 58.243 176.508 65.443 171.983 69.989L59.685 182.811s-1.213 15.979-1.213 15.979S194.471 63.521 194.471 63.521s-40.895-40.895-40.895-40.895S150.866 24.788 150.866 24.788z" id="path-7" class="cls-8" fill-rule="evenodd"/><path d="M49.795 194.107s-31.321 8.322-31.321 8.322S23.655 207.612 23.655 207.612s34.817-8.822 34.817-8.822 1.184-10.944 1.184-10.944S59.663 173.234 59.663 173.234 55.975 173.742 55.975 173.742s-6.18 20.365-6.18 20.365z" id="path-8" class="cls-8" fill-rule="evenodd"/><path d="M61.619 135.35C60.694 135.35 59.77 134.997 59.062 134.292 57.651 132.88 57.651 130.591 59.062 129.181l80.892-80.894C141.367 46.874 143.655 46.874 145.066 48.287 146.478 49.698 146.478 51.986 145.066 53.398L64.175 134.292C63.468 134.997 62.544 135.35 61.619 135.35z" id="path-9" class="cls-4" fill-rule="evenodd"/></g></svg>

<svg xmlns="http://www.w3.org/2000/svg" xmlns:xlink="http://www.w3.org/1999/xlink" preserveAspectRatio="xMidYMid" width="217" height="218" viewBox="0 0 217 218">
  <defs>
    <style>

      .cls-3 {
        fill: #ff3a2f;
      }

      .cls-4 {
        fill: #ffffff;
      }

      .cls-5 {
        fill: #142a3b;
      }

      .cls-7 {
        fill: #fbb713;
      }

      .cls-8 {
        fill: #000000;
        opacity: 0.35;
      }
    </style>
  </defs>
  <g id="group-136svg">
    <path d="M206.505,51.119 C206.505,51.119 190.360,67.265 190.360,67.265 C190.360,67.265 149.575,26.478 149.575,26.478 C149.575,26.478 165.721,10.334 165.721,10.334 C178.459,-2.405 197.871,-3.539 209.096,7.685 C214.737,13.327 217.271,21.032 216.766,28.864 C216.331,36.765 212.844,44.780 206.505,51.119 Z" id="path-1" class="cls-3" fill-rule="evenodd"/>
    <path d="M169.159,24.457 C168.628,24.457 168.088,24.338 167.578,24.090 C165.785,23.215 165.039,21.051 165.913,19.256 C171.078,8.670 183.072,3.860 192.642,8.526 C194.435,9.402 195.182,11.566 194.306,13.359 C193.429,15.151 191.268,15.896 189.471,15.024 C183.485,12.103 175.827,15.422 172.411,22.426 C171.785,23.710 170.498,24.457 169.159,24.457 Z" id="path-2" class="cls-4" fill-rule="evenodd"/>
    <path d="M19.322,156.335 C19.322,156.335 153.576,22.626 153.576,22.626 C153.576,22.626 194.471,63.521 194.471,63.521 C194.471,63.521 58.472,198.790 58.472,198.790 C58.472,198.790 58.472,198.790 58.472,198.790 " id="path-3" class="cls-5" fill-rule="evenodd"/>
    <path d="M23.656,207.612 C23.656,207.612 -0.003,216.846 -0.003,216.846 C-0.003,216.846 8.275,192.229 8.275,192.229 C8.275,192.229 23.656,207.612 23.656,207.612 Z" id="path-4" class="cls-5" fill-rule="evenodd"/>
    <path d="M42.922,156.481 C42.922,156.481 27.787,156.482 27.787,156.482 C27.787,156.482 19.322,156.335 19.322,156.335 C19.322,156.335 8.275,192.229 8.275,192.229 C8.275,192.229 23.655,207.612 23.655,207.612 C23.655,207.612 58.472,198.790 58.472,198.790 C58.472,198.790 59.656,187.846 59.656,187.846 C59.656,187.846 59.663,173.234 59.663,173.234 C59.663,173.234 42.583,175.588 42.583,175.588 C42.583,175.588 42.922,156.481 42.922,156.481 Z" id="path-5" class="cls-7" fill-rule="evenodd"/>
    <path d="M193.173,0.178 C194.953,1.246 196.631,2.518 198.148,4.036 C203.790,9.677 206.323,17.382 205.818,25.214 C205.383,33.115 201.897,41.131 195.556,47.470 C195.556,47.470 186.711,56.316 186.711,56.316 C186.711,56.316 194.010,63.614 194.010,63.614 C194.010,63.614 206.504,51.119 206.504,51.119 C212.844,44.778 216.331,36.765 216.766,28.864 C217.272,21.033 214.737,13.326 209.097,7.685 C204.735,3.324 199.134,0.853 193.173,0.178 Z" id="path-6" class="cls-8" fill-rule="evenodd"/>
    <path d="M150.866,24.788 C150.866,24.788 173.001,53.183 173.001,53.183 C176.944,58.243 176.508,65.443 171.983,69.989 C171.983,69.989 59.685,182.811 59.685,182.811 C59.685,182.811 58.472,198.790 58.472,198.790 C58.472,198.790 194.471,63.521 194.471,63.521 C194.471,63.521 153.576,22.626 153.576,22.626 C153.576,22.626 150.866,24.788 150.866,24.788 Z" id="path-7" class="cls-8" fill-rule="evenodd"/>
    <path d="M49.795,194.107 C49.795,194.107 18.474,202.429 18.474,202.429 C18.474,202.429 23.655,207.612 23.655,207.612 C23.655,207.612 58.472,198.790 58.472,198.790 C58.472,198.790 59.656,187.846 59.656,187.846 C59.656,187.846 59.663,173.234 59.663,173.234 C59.663,173.234 55.975,173.742 55.975,173.742 C55.975,173.742 49.795,194.107 49.795,194.107 Z" id="path-8" class="cls-8" fill-rule="evenodd"/>
    <path d="M61.619,135.350 C60.694,135.350 59.770,134.997 59.062,134.292 C57.651,132.880 57.651,130.591 59.062,129.181 C59.062,129.181 139.954,48.287 139.954,48.287 C141.367,46.874 143.655,46.874 145.066,48.287 C146.478,49.698 146.478,51.986 145.066,53.398 C145.066,53.398 64.175,134.292 64.175,134.292 C63.468,134.997 62.544,135.350 61.619,135.350 Z" id="path-9" class="cls-4" fill-rule="evenodd"/>
  </g>
</svg>
